X: 453
U:~=!turn!
M:C
L:1/8
K:C aeolian
c | B<CC>D E>FGB | F>G{/A}F>E DB,B,c | B<CC>D E>FG>B | F>B, G/F/E/D/ ECCc |
c>ge>g c>ge>g | B>bd>f B>dF>B | G>=Bc>d e>cg>e | d>B G/F/E/D/ ECC |]


